!!!SOCIAL_FUNCTION:	songs for little children
!!!PDT:	1939
!!!OTL: No_114_Song_of_the_Little_Slave_Man.krn
!!!LANG: Non-Tone
!!!LING_GROUP: Wakashan
!!!REG: Pacific Northwest
**kern
*staff1
=1-
*clefF4
*k[b-e-a-d-]
*M2/4
4F\
8F\L
8F\J
=2
4E-\
8E-\L
8E-\J
=3
8C/L
[8BB-/J
8BB-/]
8r
=4
8F\L
8F\J
8F\L
8F\J
=5
8F\L
8F\J
8F\
8r
=6
4A-\
8A-\L
8G\J
=7
4F\
8F\L
8F\J
=8
8D-/L
[8C/J
8C/]
8r
=9
4A-\
8A-\L
8G\J
=10
4F\
8F\L
8F\J
=11
8D-/L
[8C/J
8C/]
8r
=12
8F\L
8F\J
8F\L
8F\J
=13
8F\L
8F\J
8F\
8r
=14
4A-\
8A-\L
8G\J
=15
4F\
8F\L
8F\J
=16
8D-/L
[8C/J
8C/]
8r
=17
8F\L
8F\J
8F\L
8F\J
=18
8F\L
8F\J
8F\
8r
=19
4A-\
8A-\L
8G\J
=20
4F\
8F\L
8F\J
=21
8D-/L
[8C/J
8C/]
8r
=22
4A-\
8A-\L
8G\J
=23
4F\
8F\L
8F\J
=24
8D-/L
[8C/J
8C/]
8r
==
*-
